X:270
T:Doctor Who Pirate Jig
C:Martha Stokely, 2006
N:For the dance "The Fuerst Maggot" by Don Theyken.
N:For the dance "Unknown Buccaneer" by Sharon Green.  Originally in C minor
L:1/8
M:6/8
R:Jig
S:Colin Hume's website,  colinhume.com  - chords can also be printed below the stave.
Q:3/8=112
K:Bm
P:A
|: g | "Bm"f2B- BcB | "F#7"^A2F- F2g | "Bm"f2B- BdB | "A"c2A- Aag |\
"Bm"f2d B2F | "G"A2G- GAG | "Bm"F3- F2G | "F#7"F3- F2 :|
P:B
|: F | "Bm"B2B- Bcd | "A"c2A E2c | "D"d2d- def | "A"e2c A2e |\
"D"f2f- fed | "F#7"c2^A F2c | "Bm"dcB "F#7"^A^GA | "Bm"B2B,- B,2 :|

